X: 184
T:Clamavi ad dominum cum tribularer
N: Derived from Jos1508-Clamavi_ad_dominum_cum_tribularer.krn
C: Josquin des Prez
%%abc-version 2.0
%%abcx-abcm2ps-target-version 5.9.1 (29 Sep 2008)
%%abc-creator hum2abc beta
%%abcx-conversion-date 2019/02/12 16:15:47
%%abc-edited-by Jesse Rodin
%%abc-edited-by Jesse Rodin 8/19/2013
%%abcx-initial-encoding-date 2013/08/19/
%%humdrum-veritas 2166602685
%%humdrum-veritas-data 18169157
%%linebreak <none>
%%barnumbers 0
L: 1/4
M: 2/1
Q: 1/2=120
%%staves [1 2 3 4]
V: 1 clef=treble
V: 2 clef=treble
V: 3 clef=treble-8
V: 4 clef=bass
K: C
[V:1] e8 | 
[V:2] B8 | 
[V:3] e8- | 
[V:4] E,8 | 
[V:1] e4g4- | 
[V:2] c4B4 | 
[V:3] e8 | 
[V:4] A,4G,4 | 
[V:1] g2f2e2d2 | 
[V:2] G8 | 
[V:3] e8- | 
[V:4] C6B,2 | 
[V:1] c6d2 | 
[V:2] A6G2 | 
[V:3] e8 | 
[V:4] A,4C4 | 
[V:1] B4B4 | 
[V:2] G8 | 
[V:3] d8- | 
[V:4] G,8 | 
[V:1] z2B4AG | 
[V:2] d6B2 | 
[V:3] d8 | 
[V:4] G,8- | 
[V:1] d8 | 
[V:2] B8 | 
[V:3] d8 | 
[V:4] G,8 | 
[V:1] g4g2g2 | 
[V:2] z4c4 | 
[V:3] e8 | 
[V:4] z8 | 
[V:1] e8 | 
[V:2] c2c2A4 | 
[V:3] e4e4 | 
[V:4] C4C2C2 | 
[V:1] z2c4c2 | 
[V:2] A4A2A2 | 
[V:3] e8 | 
[V:4] A,2A,2A,2A,2 | 
[V:1] B4c2g2- | 
[V:2] G4G4 | 
[V:3] z4e4 | 
[V:4] E4C4 | 
[V:1] gfedc4 | 
[V:2] z2G4A2- | 
[V:3] e2e2e4 | 
[V:4] z2C4A,2 | 
[V:1] d4c3B | 
[V:2] A2^G2A4- | 
[V:3] d4e4 | 
[V:4] B,4A,4 | 
[V:1] A2d3cBA | 
[V:2] A4z4 | 
[V:3] f8 | 
[V:4] D,8 | 
[V:1] G4g3f | 
[V:2] z2G3FED | 
[V:3] e8- | 
[V:4] E,8 | 
[V:1] e2gfedcB | 
[V:2] C2B,4E2- | 
[V:3] e8 | 
[V:4] E,4E,4 | 
[V:1] A4G4 | 
[V:2] E2D2E4 | 
[V:3] z8 | 
[V:4] F,4E,4 | 
[V:1] A8 | 
[V:2] A,8 | 
[V:3] d8 | 
[V:4] F,8 | 
[V:1] G4g4- | 
[V:2] B,8 | 
[V:3] e8 | 
[V:4] E,8- | 
[V:1] g2f2e2d2 | 
[V:2] G,8 | 
[V:3] g6f2 | 
[V:4] E,8 | 
[V:1] e2c4B2- | 
[V:2] G8 | 
[V:3] e4d4 | 
[V:4] C,4G,4 | 
[V:1] B2AGA4 | 
[V:2] E2E4DC | 
[V:3] c8 | 
[V:4] A,8 | 
[V:1] B8- | 
[V:2] G6FE | 
[V:3] B8- | 
[V:4] E,4G,4- | 
[V:1] B8 | 
[V:2] D4E2G2 | 
[V:3] B8 | 
[V:4] G,4G,4 | 
[V:1] z8 | 
[V:2] F2E4D2 | 
[V:3] z8 | 
[V:4] A,4F,4 | 
[V:1] B8 | 
[V:2] E8 | 
[V:3] z2g4e2 | 
[V:4] E,8 | 
[V:1] d4e4 | 
[V:2] z4E4 | 
[V:3] f2edc4 | 
[V:4] z8 | 
[V:1] e6e2 | 
[V:2] G4A4 | 
[V:3] c6c2 | 
[V:4] z4z2A,2- | 
[V:1] e4z2e2- | 
[V:2] A4A2A2 | 
[V:3] c4f2e2 | 
[V:4] A,A,A,2D2C2 | 
[V:1] edd2e4 | 
[V:2] A2A4A2 | 
[V:3] f2edc4 | 
[V:4] D2D2A,2A,2 | 
[V:1] f8 | 
[V:2] A3GFGAB | 
[V:3] defga2f2 | 
[V:4] D8 | 
[V:1] e4e4- | 
[V:2] c4c4- | 
[V:3] g4z2e2 | 
[V:4] C8 | 
[V:1] e4e4 | 
[V:2] c4z2A2 | 
[V:3] g2a2e4- | 
[V:4] z2A,2C2C2 | 
[V:1] e4e4 | 
[V:2] c2c2A4 | 
[V:3] e4z4 | 
[V:4] A,4z2A,2 | 
[V:1] e4e4 | 
[V:2] z4z2A2 | 
[V:3] z2a2g2a2 | 
[V:4] G,2A,2E,2A,2 | 
[V:1] e8 | 
[V:2] G2A2E4 | 
[V:3] e3fg2c2- | 
[V:4] C6A,2- | 
[V:1] z8 | 
[V:2] FEE4D2 | 
[V:3] cBAGA4 | 
[V:4] A,G,F,E,F,4 | 
[V:1] e4e4 | 
[V:2] E8 | 
[V:3] B4G2g2- | 
[V:4] E,8 | 
[V:1] d2e4d2 | 
[V:2] z4A4- | 
[V:3] g2e2f4 | 
[V:4] z8 | 
[V:1] e8- | 
[V:2] A4A4 | 
[V:3] e4z2e2- | 
[V:4] A,4A,4 | 
[V:1] e8- | 
[V:2] G2A4^G2 | 
[V:3] e2c2B4 | 
[V:4] E,4E,4 | 
[V:1] e8 | 
[V:2] A8 | 
[V:3] A4a4 | 
[V:4] E2C3DEF | 
[V:1] g6f2 | 
[V:2] B8 | 
[V:3] g8- | 
[V:4] E6D2 | 
[V:1] e4d4 | 
[V:2] z2c4B2 | 
[V:3] g8 | 
[V:4] C4G,4 | 
[V:1] c4B4 | 
[V:2] c2A4G2- | 
[V:3] e4d4 | 
[V:4] z2C2G,4 | 
[V:1] c8 | 
[V:2] G2^FEF4 | 
[V:3] c4z2c2 | 
[V:4] A,8 | 
[V:1] B8- | 
[V:2] G8- | 
[V:3] d2e4d2 | 
[V:4] G,4E,2G,2- | 
[V:1] B8 | 
[V:2] G8 | 
[V:3] e8 | 
[V:4] G,2E,2E,4 | 
[V:1] z2E3FGA | 
[V:2] z4E4 | 
[V:3] z8 | 
[V:4] z8 | 
[V:1] B2c2d2e2 | 
[V:2] E2E2D2CD | 
[V:3] z8 | 
[V:4] z8 | 
[V:1] gfedcBAB | 
[V:2] EFG4A2- | 
[V:3] z8 | 
[V:4] z8 | 
[V:1] cde4d2 | 
[V:2] A2G2F4 | 
[V:3] z8 | 
[V:4] z8 | 
[V:1] e8- | 
[V:2] E4z2c2- | 
[V:3] z4z2e2 | 
[V:4] z4A,4 | 
[V:1] e8 | 
[V:2] c2c2c2c2 | 
[V:3] e2e2cdef | 
[V:4] A,2A,2A,4 | 
[V:1] z8 | 
[V:2] B2A2A2^G2 | 
[V:3] g2e4d2 | 
[V:4] G,2A,2B,4 | 
[V:1] e4e2e2 | 
[V:2] A8 | 
[V:3] e8 | 
[V:4] A,8 | 
[V:1] g3fedc2 | 
[V:2] z8 | 
[V:3] z2e2e2e2 | 
[V:4] z8 | 
[V:1] B3dc2B2- | 
[V:2] z8 | 
[V:3] g3fe2d2 | 
[V:4] z8 | 
[V:1] B2AGA4 | 
[V:2] z8 | 
[V:3] c3Bc4 | 
[V:4] z8 | 
[V:1] B8- | 
[V:2] z8 | 
[V:3] B8- | 
[V:4] z2E,4E,2 | 
[V:1] B8 | 
[V:2] z2E2E2E2 | 
[V:3] B8 | 
[V:4] E,2G,3F,E,D, | 
[V:1] z4z2e2- | 
[V:2] G3FEDA2 | 
[V:3] e4z2e2 | 
[V:4] C,2C3B,C2 | 
[V:1] e2d2e3d | 
[V:2] A2A2c3B | 
[V:3] f4e4 | 
[V:4] D4z2A,2 | 
[V:1] cBA2G4 | 
[V:2] AGF2E3G | 
[V:3] z4z4 | 
[V:4] A,2A,2C3B, | 
[V:1] z2G2c2d2 | 
[V:2] F2E4D2 | 
[V:3] z4z4 | 
[V:4] A,2G,2F,4 | 
[V:1] e2e4d2 | 
[V:2] A2c4B2 | 
[V:3] z2e3fg2 | 
[V:4] E,4z4 | 
[V:1] e4z4 | 
[V:2] A2G2F4 | 
[V:3] c2e4d2 | 
[V:4] z8 | 
[V:1] z2e2e2e2 | 
[V:2] E8 | 
[V:3] e2c4B2 | 
[V:4] z2A,4G,2 | 
[V:1] e3dcBA2 | 
[V:2] c3BAGF2 | 
[V:3] c8 | 
[V:4] A,2A,2A,2A,2 | 
[V:1] B2d4c2 | 
[V:2] G2B2A2A2- | 
[V:3] d3ef2e2- | 
[V:4] G,4A,4 | 
[V:1] d4c4- | 
[V:2] A2^G2A4 | 
[V:3] e2d2e4 | 
[V:4] B,4A,4- | 
[V:1] c4B2B2- | 
[V:2] z2A2F2ED | 
[V:3] z2e2d2B2 | 
[V:4] A,4z4 | 
[V:1] B2A2B4 | 
[V:2] E2F2G4 | 
[V:3] c4B4 | 
[V:4] A,4G,4 | 
[V:1] z2A2A2A2 | 
[V:2] C4z2c2 | 
[V:3] e8 | 
[V:4] A,2A,2A,4- | 
[V:1] c3BAGF2 | 
[V:2] A2c3BA2 | 
[V:3] z2c4d2 | 
[V:4] A,4z4 | 
[V:1] E2e4d2 | 
[V:2] G2A2F4 | 
[V:3] e2c2d4 | 
[V:4] z8 | 
[V:1] e8 | 
[V:2] E4A4 | 
[V:3] c4z2e2- | 
[V:4] z2A,2A,4 | 
[V:1] z2e2f2g2 | 
[V:2] GFEDC2B,2- | 
[V:3] efg2f2e2- | 
[V:4] C3B,A,2G,2 | 
[V:1] a4g3f | 
[V:2] B,2A,2B,2CD | 
[V:3] e2d2e3d | 
[V:4] F,4E,4 | 
[V:1] e2d2c4 | 
[V:2] EFG4F2 | 
[V:3] c2B2A4 | 
[V:4] z8 | 
[V:1] B4e4 | 
[V:2] G4C4 | 
[V:3] G8 | 
[V:4] E,8 | 
[V:1] d2c2B2A2 | 
[V:2] D8 | 
[V:3] A8 | 
[V:4] F,8 | 
[V:1] G8 ||  
[V:2] E8 ||  
[V:3] B8 ||  
[V:4] E,8 ||  
[V:1]  [K:C] [K:clef=treble][M:2/1]z8 | 
[V:2]  [K:C] [K:clef=treble][M:2/1]z8 | 
[V:3]  [K:C] [K:clef=treble-8][M:2/1]e8 | 
[V:4]  [K:C] [K:clef=bass][M:2/1]z8 | 
[V:1] B8 | 
[V:2] z8 | 
[V:3] d4e4 | 
[V:4] z8 | 
[V:1] A4B4 | 
[V:2] z2A4G2 | 
[V:3] c4B4 | 
[V:4] z8 | 
[V:1] c8 | 
[V:2] A8 | 
[V:3] z2e4dc | 
[V:4] A,8 | 
[V:1] B4e4- | 
[V:2] B4c2A2- | 
[V:3] g4c4- | 
[V:4] G,4A,4 | 
[V:1] e2e2e4- | 
[V:2] A2GFE4 | 
[V:3] c2c2c4 | 
[V:4] A,8 | 
[V:1] e4f2a2 | 
[V:2] E2A4F2 | 
[V:3] c4z4 | 
[V:4] A,8 | 
[V:1] g3fede2- | 
[V:2] GFEDC4 | 
[V:3] c3defga | 
[V:4] z8 | 
[V:1] e2d2e4 | 
[V:2] D4C4- | 
[V:3] f4e4- | 
[V:4] z4A,4- | 
[V:1] z2c2A2c2- | 
[V:2] C4c2A2 | 
[V:3] e2f4e2 | 
[V:4] A,2A,2A,4 | 
[V:1] cBAGFEe2 | 
[V:2] c3BAGA2- | 
[V:3] c4z2c2- | 
[V:4] A,4A,4 | 
[V:1] f2a2g3f | 
[V:2] A2F2G2c2- | 
[V:3] c2A2e4 | 
[V:4] A,4z4 | 
[V:1] ede2c4 | 
[V:2] cBAGA4 | 
[V:3] c4e2f2 | 
[V:4] A,4A,4 | 
[V:1] B4z4 | 
[V:2] B2d2cBAG | 
[V:3] g4e2c2 | 
[V:4] G,4A,4 | 
[V:1] B4d4 | 
[V:2] FDG3FED | 
[V:3] d4G4 | 
[V:4] B,8 | 
[V:1] e4d2e2- | 
[V:2] C4z4 | 
[V:3] g6g2- | 
[V:4] z2C2B,2C2 | 
[V:1] e2dcB2g2 | 
[V:2] C4D2D2- | 
[V:3] g2f2g4 | 
[V:4] A,4G,4 | 
[V:1] f2e4d2 | 
[V:2] D2E2F4 | 
[V:3] z8 | 
[V:4] z8 | 
[V:1] e4z2e2- | 
[V:2] E4z2A2- | 
[V:3] z4z2c2- | 
[V:4] z4z2A,2 | 
[V:1] e2e2e2e2 | 
[V:2] A2A2G2G2 | 
[V:3] c2c2e4 | 
[V:4] A,4C4 | 
[V:1] e2e4e2 | 
[V:2] A2c4B2 | 
[V:3] e2a2g2g2 | 
[V:4] C2A,2C2G,2 | 
[V:1] e2e2d2d2 | 
[V:2] c2c2A2A2 | 
[V:3] e2e2f2f2 | 
[V:4] C2C2D2D2 | 
[V:1] e4e2g2- | 
[V:2] A4G4- | 
[V:3] e4z4 | 
[V:4] A,3B,CDE2 | 
[V:1] g2fed2e2- | 
[V:2] G4G4 | 
[V:3] z8 | 
[V:4] C4B,2C2- | 
[V:1] edcBc4 | 
[V:2] E8- | 
[V:3] z8 | 
[V:4] CB,A,G,A,4 | 
[V:1] B8 | 
[V:2] E8 | 
[V:3] g8 | 
[V:4] E,4z4 | 
[V:1] c3de4 | 
[V:2] C8- | 
[V:3] e4e4 | 
[V:4] A,8 | 
[V:1] z2A2c3d | 
[V:2] C8 | 
[V:3] c3de2f2 | 
[V:4] A,8 | 
[V:1] e2f2e2a2- | 
[V:2] z8 | 
[V:3] e2a4c'2- | 
[V:4] A,6A,2 | 
[V:1] agfed4 | 
[V:2] C4D4 | 
[V:3] c'bagf4 | 
[V:4] A,4z4 | 
[V:1] e2A3AA2 | 
[V:2] C4c4 | 
[V:3] e6c2 | 
[V:4] A,4A,4 | 
[V:1] c3BAGF2 | 
[V:2] A2c3BA2 | 
[V:3] c8 | 
[V:4] A,2A,2A,4 | 
[V:1] E2e2e2e2 | 
[V:2] G2A3Bc2 | 
[V:3] e6e2 | 
[V:4] C3B,A,G,A,2 | 
[V:1] g3fede2 | 
[V:2] B2B4AG | 
[V:3] e4e4 | 
[V:4] E,8 | 
[V:1] c4B2d2 | 
[V:2] A4B4 | 
[V:3] e4g3f | 
[V:4] A,4G,4 | 
[V:1] cBB4A2 | 
[V:2] z2E4E2 | 
[V:3] ede2c4 | 
[V:4] z8 | 
[V:1] B8 | 
[V:2] G3FEDG2- | 
[V:3] B8 | 
[V:4] E,4G,3F, | 
[V:1] z8 | 
[V:2] GFEDC2E2- | 
[V:3] B4c4 | 
[V:4] E,D,G,2A,2E,2 | 
[V:1] z8 | 
[V:2] E2DCD4 | 
[V:3] A8 | 
[V:4] F,4F,4 | 
[V:1] e8 | 
[V:2] E8 | 
[V:3] B8 | 
[V:4] E,8 | 
[V:1] d4e4 | 
[V:2] z4A4- | 
[V:3] d4c4- | 
[V:4] B,4C2A,2- | 
[V:1] e4e4 | 
[V:2] A4G4 | 
[V:3] c4B4 | 
[V:4] A,G,A,2E,4 | 
[V:1] e4e4 | 
[V:2] A4A4 | 
[V:3] A2e4e2 | 
[V:4] A,3B,C2A,2 | 
[V:1] d4e2AB | 
[V:2] A4A4 | 
[V:3] f4e4 | 
[V:4] D4A,4 | 
[V:1] cdefg4 | 
[V:2] A4G2E2- | 
[V:3] c4B2B2- | 
[V:4] A,2A,2E,2G,2 | 
[V:1] a4g3f | 
[V:2] E2D2E4- | 
[V:3] B2A2B4- | 
[V:4] F,4E,4 | 
[V:1] edcBdcBA | 
[V:2] E4F4 | 
[V:3] B4z4 | 
[V:4] E,4D,4 | 
[V:1] G2B4A2 | 
[V:2] E4E4- | 
[V:3] B4B2c2 | 
[V:4] E,3F,G,2A,2 | 
[V:1] B2G4c2- | 
[V:2] E4z4 | 
[V:3] B2e3dg2- | 
[V:4] G,2C3DE2- | 
[V:1] cBAGA4 | 
[V:2] z8 | 
[V:3] gfede2dc | 
[V:4] EDCB,C4 | 
[V:1] B4B4 | 
[V:2] z4E4- | 
[V:3] B4B4 | 
[V:4] G,8 | 
[V:1] G8 | 
[V:2] E4E4 | 
[V:3] c8 | 
[V:4] C,8 | 
[V:1] z2G4A2 | 
[V:2] E4E4 | 
[V:3] z2B4c2 | 
[V:4] z2G,2E,2A,2 | 
[V:1] B3cA4 | 
[V:2] z2E4D2 | 
[V:3] B2G2A4 | 
[V:4] G,2E,2F,4 | 
[V:1] G8- | 
[V:2] E6DC | 
[V:3] B8 | 
[V:4] E,8- | 
[V:1] G8 | 
[V:2] B,4B4 | 
[V:3] e6e2 | 
[V:4] E,8 | 
[V:1] z2c2c2c2 | 
[V:2] c4A2A2 | 
[V:3] e4e4 | 
[V:4] z2A,4A,2 | 
[V:1] d2e4d2 | 
[V:2] B2c4A2 | 
[V:3] g6f2 | 
[V:4] G,2C4D2 | 
[V:1] e4z4 | 
[V:2] c4B2B2- | 
[V:3] e4d4 | 
[V:4] A,4z4 | 
[V:1] e6e2 | 
[V:2] B2AGA4 | 
[V:3] c8 | 
[V:4] A,8 | 
[V:1] e4e4 | 
[V:2] B4z4 | 
[V:3] B4A4 | 
[V:4] E,4E4 | 
[V:1] e2g3fed | 
[V:2] z8 | 
[V:3] z4G4 | 
[V:4] C4B,4 | 
[V:1] c8 | 
[V:2] E6F2 | 
[V:3] c8 | 
[V:4] A,8 | 
[V:1] B8 | 
[V:2] G3F/ E/D2G2 | 
[V:3] d6B2 | 
[V:4] G,8 | 
[V:1] z8 | 
[V:2] F2E4D2 | 
[V:3] c4A4 | 
[V:4] A,4F,4 | 
[V:1] B8- | 
[V:2] E8- | 
[V:3] B8- | 
[V:4] E,8- | 
[V:1] B8 | 
[V:2] E8- | 
[V:3] B8- | 
[V:4] E,8- | 
[V:1] e8 ||  
[V:2] E8 ||  
[V:3] B8 ||  
[V:4] E,8 ||  
[V:1]  [K:C] [K:clef=treble][M:2/1]z8 | 
[V:2]  [K:C] [K:clef=treble][M:2/1]z8 | 
[V:3]  [K:C] [K:clef=treble-8][M:2/1]z8 | 
[V:4]  [K:C] [K:clef=bass][M:2/1]A,6G,2 | 
[V:1] z8 | 
[V:2] z8 | 
[V:3] z2e4d2 | 
[V:4] A,4F,4 | 
[V:1] z2e4d2 | 
[V:2] z8 | 
[V:3] e4f4 | 
[V:4] E,4z4 | 
[V:1] e4d4 | 
[V:2] z2A4G2 | 
[V:3] e4z4 | 
[V:4] A,4B,4 | 
[V:1] c4c2BA | 
[V:2] A2A4A2 | 
[V:3] e8 | 
[V:4] A,2C2A,2G,F, | 
[V:1] B6B2 | 
[V:2] G4G2G2 | 
[V:3] e6e2 | 
[V:4] E,8 | 
[V:1] B4e4- | 
[V:2] G4c2B2 | 
[V:3] e8- | 
[V:4] z2G,2A,2G,2 | 
[V:1] e2e2g3f | 
[V:2] c4B2c2- | 
[V:3] e8 | 
[V:4] A,4E,4 | 
[V:1] e2d2c4 | 
[V:2] c2B2A4 | 
[V:3] z8 | 
[V:4] z8 | 
[V:1] B4z2e2 | 
[V:2] G4F4 | 
[V:3] z8 | 
[V:4] z2E4D2 | 
[V:1] g3fedcB | 
[V:2] E4z4 | 
[V:3] z2e4e2 | 
[V:4] E2C3B,A,G, | 
[V:1] c4B4 | 
[V:2] C4E3F | 
[V:3] e4g3f | 
[V:4] A,4E,4 | 
[V:1] z2B4A2 | 
[V:2] G2F2G2F2 | 
[V:3] e2d2c4 | 
[V:4] z4z2A,2 | 
[V:1] B4c4 | 
[V:2] G4E2C2 | 
[V:3] B4z2e2- | 
[V:4] G,4A,2A,2 | 
[V:1] B2B2B2B2 | 
[V:2] G8 | 
[V:3] e2d2e2e2 | 
[V:4] G,2G,2E,2E,2 | 
[V:1] B4e4 | 
[V:2] G4G4- | 
[V:3] d2d2e2e2 | 
[V:4] B,2B,2C4 | 
[V:1] e4d4 | 
[V:2] G2A2B4 | 
[V:3] e4z4 | 
[V:4] C4B,4 | 
[V:1] e4f4 | 
[V:2] c4z2A2- | 
[V:3] z2e4d2 | 
[V:4] A,4z2D2 | 
[V:1] e4z4 | 
[V:2] A2G2A4 | 
[V:3] e4f4 | 
[V:4] C3B,A,G,F,2 | 
[V:1] z8 | 
[V:2] B2c3BA2- | 
[V:3] e4z2e2- | 
[V:4] G,2A,3B,C2 | 
[V:1] z4z2c2- | 
[V:2] A2^G2A4 | 
[V:3] e2d2e4 | 
[V:4] B,4A,2A,2- | 
[V:1] c2B4A2 | 
[V:2] A,2B,2C4 | 
[V:3] e4e4- | 
[V:4] A,2G,2A,4 | 
[V:1] B4z4 | 
[V:2] B,2E4D2 | 
[V:3] e4z4 | 
[V:4] E,4F,4 | 
[V:1] e3ee2e2 | 
[V:2] G8- | 
[V:3] e6e2 | 
[V:4] E,8- | 
[V:1] g3fedc2 | 
[V:2] G8 | 
[V:3] e4e4 | 
[V:4] E,8 | 
[V:1] B3dc2B2- | 
[V:2] z8 | 
[V:3] g3fe2d2 | 
[V:4] z8 | 
[V:1] B2AGA4 | 
[V:2] z8 | 
[V:3] c3Bc4 | 
[V:4] z8 | 
[V:1] B8- | 
[V:2] z8 | 
[V:3] B8- | 
[V:4] z2E,3E,E,2 | 
[V:1] B8 | 
[V:2] E3EE2E2 | 
[V:3] B8 | 
[V:4] E,2G,3F,E,D, | 
[V:1] z4z2e2- | 
[V:2] G3FEDA2- | 
[V:3] e4z2e2 | 
[V:4] C,2C3B,C2 | 
[V:1] e2d2e3d | 
[V:2] AAA2c3B | 
[V:3] f4e4 | 
[V:4] D4A,3A, | 
[V:1] cBA2G4 | 
[V:2] AGF2E3G | 
[V:3] z8 | 
[V:4] A,2A,2C3B, | 
[V:1] z2g2a4 | 
[V:2] F2E4D2 | 
[V:3] z4A4 | 
[V:4] A,2G,2F,4 | 
[V:1] g3fe2d2 | 
[V:2] E4z4 | 
[V:3] B4c2B2 | 
[V:4] E,4z2G,2 | 
[V:1] c2B2A4 | 
[V:2] z2G2FGAF | 
[V:3] c2G2ABcd | 
[V:4] A,2E,2F,4 | 
[V:1] B4z2GA | 
[V:2] GFEDC4- | 
[V:3] efg2f2e2- | 
[V:4] E,4A,2C2- | 
[V:1] Bcd2c2B2- | 
[V:2] C2G6 | 
[V:3] e2d2e4 | 
[V:4] C2B,2C2G,2 | 
[V:1] B2AGA4 | 
[V:2] E6C2 | 
[V:3] c8 | 
[V:4] A,8 | 
[V:1] B8- | 
[V:2] G8- | 
[V:3] B8- | 
[V:4] G,6E,2 | 
[V:1] B8- | 
[V:2] G4E4 | 
[V:3] B8- | 
[V:4] E,8- | 
[V:1] B8 ||  
[V:2] E8 ||  
[V:3] B8 ||  
[V:4] E,8 ||  
[V:1]  [K:C] [K:clef=treble][M:2/1]e8- | 
[V:2]  [K:C] [K:clef=treble][M:2/1]E3FGAB2- | 
[V:3]  [K:C] [K:clef=treble-8][M:2/1]B8 | 
[V:4]  [K:C] [K:clef=bass][M:2/1]E,8 | 
[V:1] e8- | 
[V:2] B2AGA4 | 
[V:3] c8 | 
[V:4] A,8 | 
[V:1] e8- | 
[V:2] B4A4 | 
[V:3] B4e4- | 
[V:4] G,4A,4 | 
[V:1] e8 | 
[V:2] G8 | 
[V:3] e4e4 | 
[V:4] C8 | 
[V:1] e8- | 
[V:2] A6c2- | 
[V:3] c3defg2- | 
[V:4] A,3B,CDE2- | 
[V:1] e8 | 
[V:2] cBAGA4 | 
[V:3] gfede2c2 | 
[V:4] EDCB,C4 | 
[V:1] d8 | 
[V:2] B8- | 
[V:3] g8 | 
[V:4] G,6A,2 | 
[V:1] d8 | 
[V:2] B8 | 
[V:3] G6A2 | 
[V:4] B,4B,4 | 
[V:1] e8 | 
[V:2] z2G4E2 | 
[V:3] B8 | 
[V:4] E,8 | 
[V:1] d4e4 | 
[V:2] F2EDC2c2- | 
[V:3] z8 | 
[V:4] z8 | 
[V:1] g4f2e2- | 
[V:2] c2B2A2G2 | 
[V:3] z8 | 
[V:4] z8 | 
[V:1] e2d2e4 | 
[V:2] F4E4 | 
[V:3] z8 | 
[V:4] z4E,4 | 
[V:1] c4A4 | 
[V:2] z2A,2C2D2 | 
[V:3] A8- | 
[V:4] F,8- | 
[V:1] A8 | 
[V:2] C2D3EF2 | 
[V:3] A8 | 
[V:4] F,8 | 
[V:1] B8 | 
[V:2] G4z2G2 | 
[V:3] G8- | 
[V:4] E,8- | 
[V:1] z2B4c2- | 
[V:2] E2G3FED | 
[V:3] G8 | 
[V:4] E,8 | 
[V:1] c2B2c3B | 
[V:2] C6D2 | 
[V:3] A8 | 
[V:4] F,4F,4 | 
[V:1] G2A4G2 | 
[V:2] E2A,2z2E2 | 
[V:3] c8 | 
[V:4] E,2F,4E,2 | 
[V:1] A8- | 
[V:2] C2D3EF2 | 
[V:3] A8- | 
[V:4] F,4D,4 | 
[V:1] A8 | 
[V:2] D2F2D3C/ D/ | 
[V:3] A8 | 
[V:4] F,8 | 
[V:1] z2G4A2- | 
[V:2] E8- | 
[V:3] B6c2- | 
[V:4] E,6A,2- | 
[V:1] A2B4A2 | 
[V:2] E8 | 
[V:3] c2B2c4 | 
[V:4] A,2G,2A,4 | 
[V:1] B8- | 
[V:2] z2G3FED | 
[V:3] B8- | 
[V:4] G,3F,E,D,G,2- | 
[V:1] B8- | 
[V:2] EDE4D2 | 
[V:3] B8- | 
[V:4] G,2E,2G,4- | 
[V:1] B8- | 
[V:2] E8- | 
[V:3] B8- | 
[V:4] G,4E,4 | 
[V:1] B8 |]  
[V:2] E8 |]  
[V:3] B8 |]  
[V:4] E,8 |]  



